usr/share/icons/biglinux-icons-material-dark/symbolic/actions/layer-new.svg

<svg xmlns="http://www.w3.org/2000/svg" viewBox="0 0 16 16">
<defs id="defs3051">
<style id="current-color-scheme" type="text/css">
.ColorScheme-Contrast{color:#dedede}
</style>
</defs>
<path d="M5 2 2 5h9l3-3zm0 4L2 9h8l3-3zm.414 1h5.17l-.998 1h-5.17zM11 9v2H9v1h2v2h1v-2h2v-1h-2V9z" class="ColorScheme-Contrast" style="fill:currentColor;fill-opacity:1;stroke:none"/>
</svg>

<svg xmlns="http://www.w3.org/2000/svg" viewBox="0 0 16 16">
  <defs id="defs3051">
    <style type="text/css" id="current-color-scheme">
      .ColorScheme-Text {
        color:#dedede;
      }
      </style>
  </defs>
 <path style="fill:currentColor;fill-opacity:1;stroke:none" 
     d="M 5 2 L 2 5 L 11 5 L 14 2 L 5 2 z M 5 6 L 2 9 L 7 9 L 10 9 L 13 6 L 10 6 L 7 6 L 5 6 z M 5.4140625 7 L 7 7 L 10 7 L 10.583984 7 L 9.5859375 8 L 7 8 L 4.4160156 8 L 5.4140625 7 z M 11 9 L 11 11 L 9 11 L 9 12 L 11 12 L 11 14 L 12 14 L 12 12 L 14 12 L 14 11 L 12 11 L 12 9 L 11 9 z "
     class="ColorScheme-Text"
     />
</svg>
